!!!OTL: 194. Auf dem Wasser.
!!!COM: C. M. Weber
!!!ARE: Europa, Mitteleuropa, Deutschland
!!!SCT: B0194
!!!TXL: @@DE
!!!YEM: Copyright 1995, estate of Helmut Schaffrath.
**kern	**text
*ICvox	*
*Ivox	*
*M6/8	*
*k[b-]	*
*F:	*
!LO:TX:a:t=Nicht zu langsam.	!
{8cc	Es
=1	=1
[4.cc	mur-
8cc]	.
8a	-meln
8dd	die
=2	=2
[4.cc	Wel-
8cc]	.
8a}	-len,
{8ff	es
=3	=3
[4.ee	ſäu-
8ee]	.
8dd	-ſelt
8ee	der
=4	=4
[4.ff	Wind,
8ffL]	.
8eeJ}	.
{8dd	ſie
=5	=5
[4.cc	ſchau-
8cc]	.
8a	-keln
8dd	im
=6	=6
[4.cc	Spie-
8cc]	.
8a}	-le
{8ff	den
=7	=7
[4.ee	Na-
8ee]	.
8dd	-chen
8ee	ge-
=8	=8
4.ff	-lind.
4r}	.
{8f	Wir
=9	=9
[4.ff	glei-
8ff]	.
8ee	-ten
8dd	hin-
=10	=10
[4.cc	-un-
8cc]	.
8b-/}	-ter
{8a	das
=11	=11
[4.gg	U-
8gg]	.
8a	-fer
8b-/	ent-
=12	=12
4.a	-lang
4r}	.
{8f	und
=13	=13
[4.ff	ſin-
8ff]	.
8ee	-gen
8dd	am
=14	=14
[4.cc	Ru-
8cc]	.
8b-}	-der
{8a	den
=15	=15
8g/L	Mor-
8dd	.
(8ccJ	.
8b-)	.
8a	-gen-
8g	-ge-
=16	=16
4.f	-ſang.
4r}	.
==	==
!!!AGN: Natur - Lied, Wasser
!!!GTL: Naturfreude, Waldlust, Landleben, Berg- und Wasserfahrt
!!!ONB: ESAC (Essen Associative Code) Database: BOEHME
!!!AMT: compound duple
!!!AIN: vox
!!!EED: Helmut Schaffrath
!!!EEV: 1.0
!!Mel. von C. M. v. Weber (aus Oberon).
!!@@COMMENT:"Text vom Grafen Franʒ von Pocci, Dichter, Ʒeichner und Muſiker in München, 4 1876.
!!Aus ſeinen illuſtr. Kinderbüchern iſt das Lied in Schulhefte übergegangen, wo ich es ſand."
!!@@END:
!!!Text: F. von Pocci
!!!URL-scan: https://archive.org/details/BoehmeVtLieder1895/page/n185/mode/2up
!!!ENC: Anna Maria Matuszewska
!!!EEV: 2024/21/06
*-	*-
